X:857
T:Tennessee Blues
S:Forgotten
Z:Nigel Gatherer
L:1/8
M:4/4
K:A
aaaa aaaa | ae=gf e=c^ce | aaaa ae=gf |
e=c (3BcB A2 AA :: FABA =cBA=F | FABA =cBA=F |
FABA =cBAF |
M:6/4
E2 [EA][EA][EA][EA] ef=gf e2 |
M:4/4
^deee eeee | eeee eeee | B=cBc BAFE | A2 AB =cBAF | 
A2 [EA][EA] [EA][EA] [E2A2] :|
<end>
<start>
